X: 1
T: John Naughton's
M: 4/4
L: 1/8
R: reel
D: Charlie Piggott, Miriam Collins &amp; Joe Corcoran - The Lonely Stranded Band
K: Amix
EA~A2 (3Bcd ed|BG~G2 dGBG|EA~A2 cdef|gedB BAAG|
EA~A2 cded|BG~G2 dGBG|EAce a3B|cedB eAA2||
a2ea aged|cdef g2 (3efg|a2ea agab|gedg eAA2|
a2ea aged|cdef g3a|ba~a2 geef|gedg eAAG||
